X:1
T:The Voice in My Heart
T:The Voice in My Heart
T:Violet Evergarden OST
L:1/8
M:3/4
K:C
V:1 treble nm="Violino" snm="Vln."
V:1
 z4 Ad | f z3 Ad | e z3 Ad | g2 fg/f/ ec | A6 | G3 F GA | D4 E2 | F3 E Fc | A4 Ad | f z3 Ad | %10
 e z3 Ad | g2 fg/a/ gf | e4 de | f4 ef | g2 a3 d' | c'6 | z4 A,D | F3/2 z/ z2 A,D | %18
 E3/2 z/ z2 A,D | G2 FG/F/ E^B, | A,4 z2 | G3 F GA | D4 E2 | F3 E Fc | A4 A,D | F3/2 z/ z2 A,D | %26
 E3/2 z/ z2 A,D | G2 FG/A/ GF | A4 A2 | f6 | e4 A2 | A6 | D6 | d4 A2 | d4 A2 | c3 d c2 | B4 d2 | %37
 g2 d2 f2 | f2 d2 A2 | d3 e fA | g6 | d4 A2 | d4 A2 | c3 d e2 | f6 | A2 d2 f2 | g6 | d6 | d4 A2 | %49
 d4 A2 | c3 d c2 | B6 | G3 F G2 | A4 D2 | F3 E F2 | E4 z2 | d4 A2 | d4 A2 | f3 e fg | e4 A,D | %60
 F4- FE/F/ | E2 C2 A,2 | D6- | D2 z2 Ad | g2 fg/f/ ec | A6 | G3 F GA | D4 E2 | F3 E Fc | A4 Ad | %70
 f z3 Ad | e z z2 Ad | g2 fg/a/ gf | e6 | z4 Ad | f4 fe/f/ | e2 c2 A2 | d6 | d6 | d6 | d6 |] %81

